icons/svg/tourist_colored/rune_stone.svg

<?xml version="1.0" encoding="UTF-8" standalone="no"?>
<!-- Created with Inkscape (http://www.inkscape.org/) -->

<svg
   xmlns:dc="http://purl.org/dc/elements/1.1/"
   xmlns:cc="http://creativecommons.org/ns#"
   xmlns:rdf="http://www.w3.org/1999/02/22-rdf-syntax-ns#"
   xmlns:svg="http://www.w3.org/2000/svg"
   xmlns="http://www.w3.org/2000/svg"
   xmlns:sodipodi="http://sodipodi.sourceforge.net/DTD/sodipodi-0.dtd"
   xmlns:inkscape="http://www.inkscape.org/namespaces/inkscape"
   version="1.0"
   width="580"
   height="580"
   id="svg2"
   sodipodi:version="0.32"
   inkscape:version="0.91 r"
   sodipodi:docname="rune_stone.svg"
   inkscape:output_extension="org.inkscape.output.svg.inkscape">
  <metadata
     id="metadata2975">
    <rdf:RDF>
      <cc:Work
         rdf:about="">
        <dc:format>image/svg+xml</dc:format>
        <dc:type
           rdf:resource="http://purl.org/dc/dcmitype/StillImage" />
        <cc:license
           rdf:resource="http://web.resource.org/cc/PublicDomain" />
        <dc:language>en</dc:language>
        <dc:title />
      </cc:Work>
    </rdf:RDF>
  </metadata>
  <sodipodi:namedview
     inkscape:window-height="1004"
     inkscape:window-width="1920"
     inkscape:pageshadow="2"
     inkscape:pageopacity="0.0"
     guidetolerance="10.0"
     gridtolerance="10.0"
     objecttolerance="10.0"
     borderopacity="1.0"
     bordercolor="#666666"
     pagecolor="#ffffff"
     id="base"
     inkscape:zoom="0.32586207"
     inkscape:cx="287.72503"
     inkscape:cy="355.99004"
     inkscape:window-x="1680"
     inkscape:window-y="0"
     inkscape:current-layer="svg2"
     showgrid="false"
     inkscape:window-maximized="1" />
  <defs
     id="defs4">
    <inkscape:perspective
       sodipodi:type="inkscape:persp3d"
       inkscape:vp_x="0 : 290 : 1"
       inkscape:vp_y="0 : 1000 : 0"
       inkscape:vp_z="580 : 290 : 1"
       inkscape:persp3d-origin="290 : 193.33333 : 1"
       id="perspective2441" />
    <inkscape:perspective
       id="perspective3452"
       inkscape:persp3d-origin="30 : 20 : 1"
       inkscape:vp_z="60 : 30 : 1"
       inkscape:vp_y="0 : 1000 : 0"
       inkscape:vp_x="0 : 30 : 1"
       sodipodi:type="inkscape:persp3d" />
    <symbol
       viewBox="244.5 110 489 219.9"
       id="symbol-university">
      <path
         id="path4460"
         d="M79,43l57,119c0,0,21-96,104-96s124,106,124,106l43-133l82-17L0,17L79,43z" />
      <path
         id="path4462"
         d="M94,176l-21,39"
         stroke-width="20"
         stroke="#000000"
         fill="none" />
      <path
         id="path4464"
         d="M300,19c0,10.5-22.6,19-50.5,19S199,29.5,199,19s22.6-19,50.5-19S300,8.5,300,19z" />
      <path
         id="path4466"
         d="M112,216l-16-38L64,88c0,0-9-8-4-35s16-24,16-24"
         stroke-width="20"
         stroke="#000000"
         ill="none" />
    </symbol>
    <inkscape:perspective
       id="perspective4471"
       inkscape:persp3d-origin="372.04724 : 350.78739 : 1"
       inkscape:vp_z="744.09448 : 526.18109 : 1"
       inkscape:vp_y="0 : 1000 : 0"
       inkscape:vp_x="0 : 526.18109 : 1"
       sodipodi:type="inkscape:persp3d" />
    <inkscape:perspective
       id="perspective4668"
       inkscape:persp3d-origin="6 : 4 : 1"
       inkscape:vp_z="12 : 6 : 1"
       inkscape:vp_y="0 : 1000 : 0"
       inkscape:vp_x="0 : 6 : 1"
       sodipodi:type="inkscape:persp3d" />
    <inkscape:perspective
       id="perspective4904"
       inkscape:persp3d-origin="16 : 10.666667 : 1"
       inkscape:vp_z="32 : 16 : 1"
       inkscape:vp_y="0 : 1000 : 0"
       inkscape:vp_x="0 : 16 : 1"
       sodipodi:type="inkscape:persp3d" />
    <marker
       style="overflow:visible;"
       id="Arrow2Lend"
       refX="0.0"
       refY="0.0"
       orient="auto"
       inkscape:stockid="Arrow2Lend">
      <path
         transform="scale(1.1) rotate(180) translate(1,0)"
         d="M 8.7185878,4.0337352 L -2.2072895,0.016013256 L 8.7185884,-4.0017078 C 6.9730900,-1.6296469 6.9831476,1.6157441 8.7185878,4.0337352 z "
         style="font-size:12.0;fill-rule:evenodd;stroke-width:0.62500000;stroke-linejoin:round;"
         id="path4137" />
    </marker>
    <marker
       style="overflow:visible;"
       id="Arrow1Mend"
       refX="0.0"
       refY="0.0"
       orient="auto"
       inkscape:stockid="Arrow1Mend">
      <path
         transform="scale(0.4) rotate(180) translate(10,0)"
         style="fill-rule:evenodd;stroke:#000000;stroke-width:1.0pt;marker-start:none;"
         d="M 0.0,0.0 L 5.0,-5.0 L -12.5,0.0 L 5.0,5.0 L 0.0,0.0 z "
         id="path4125" />
    </marker>
    <marker
       style="overflow:visible"
       id="TriangleOutL"
       refX="0.0"
       refY="0.0"
       orient="auto"
       inkscape:stockid="TriangleOutL">
      <path
         transform="scale(0.8)"
         style="fill-rule:evenodd;stroke:#000000;stroke-width:1.0pt;marker-start:none"
         d="M 5.77,0.0 L -2.88,5.0 L -2.88,-5.0 L 5.77,0.0 z "
         id="path4214" />
    </marker>
    <marker
       style="overflow:visible;"
       id="Arrow1Lend"
       refX="0.0"
       refY="0.0"
       orient="auto"
       inkscape:stockid="Arrow1Lend">
      <path
         transform="scale(0.8) rotate(180) translate(12.5,0)"
         style="fill-rule:evenodd;stroke:#000000;stroke-width:1.0pt;marker-start:none;"
         d="M 0.0,0.0 L 5.0,-5.0 L -12.5,0.0 L 5.0,5.0 L 0.0,0.0 z "
         id="path4119" />
    </marker>
    <marker
       style="overflow:visible"
       id="Tail"
       refX="0.0"
       refY="0.0"
       orient="auto"
       inkscape:stockid="Tail">
      <g
         transform="scale(-1.2)"
         id="g4152">
        <path
           style="fill:none;fill-rule:evenodd;stroke:#000000;stroke-width:0.8;marker-start:none;marker-end:none;stroke-linecap:round"
           d="M -3.8048674,-3.9585227 L 0.54352094,0"
           id="path4154" />
        <path
           style="fill:none;fill-rule:evenodd;stroke:#000000;stroke-width:0.8;marker-start:none;marker-end:none;stroke-linecap:round"
           d="M -1.2866832,-3.9585227 L 3.0617053,0"
           id="path4156" />
        <path
           style="fill:none;fill-rule:evenodd;stroke:#000000;stroke-width:0.8;marker-start:none;marker-end:none;stroke-linecap:round"
           d="M 1.3053582,-3.9585227 L 5.6537466,0"
           id="path4158" />
        <path
           style="fill:none;fill-rule:evenodd;stroke:#000000;stroke-width:0.8;marker-start:none;marker-end:none;stroke-linecap:round"
           d="M -3.8048674,4.1775838 L 0.54352094,0.21974226"
           id="path4160" />
        <path
           style="fill:none;fill-rule:evenodd;stroke:#000000;stroke-width:0.8;marker-start:none;marker-end:none;stroke-linecap:round"
           d="M -1.2866832,4.1775838 L 3.0617053,0.21974226"
           id="path4162" />
        <path
           style="fill:none;fill-rule:evenodd;stroke:#000000;stroke-width:0.8;marker-start:none;marker-end:none;stroke-linecap:round"
           d="M 1.3053582,4.1775838 L 5.6537466,0.21974226"
           id="path4164" />
      </g>
    </marker>
    <marker
       style="overflow:visible"
       id="Arrow1Sstart"
       refX="0.0"
       refY="0.0"
       orient="auto"
       inkscape:stockid="Arrow1Sstart">
      <path
         transform="scale(0.2) translate(6,0)"
         style="fill-rule:evenodd;stroke:#000000;stroke-width:1.0pt;marker-start:none"
         d="M 0.0,0.0 L 5.0,-5.0 L -12.5,0.0 L 5.0,5.0 L 0.0,0.0 z "
         id="path4128" />
    </marker>
    <marker
       style="overflow:visible;"
       id="Arrow1Send"
       refX="0.0"
       refY="0.0"
       orient="auto"
       inkscape:stockid="Arrow1Send">
      <path
         transform="scale(0.2) rotate(180) translate(6,0)"
         style="fill-rule:evenodd;stroke:#000000;stroke-width:1.0pt;marker-start:none;"
         d="M 0.0,0.0 L 5.0,-5.0 L -12.5,0.0 L 5.0,5.0 L 0.0,0.0 z "
         id="path4131" />
    </marker>
    <marker
       style="overflow:visible"
       id="SemiCircleOut"
       refX="0.0"
       refY="0.0"
       orient="auto"
       inkscape:stockid="SemiCircleOut">
      <path
         transform="scale(0.6) translate(7.125493,0.763446)"
         style="fill-rule:evenodd;stroke:#000000;stroke-width:1.0pt;marker-start:none;marker-end:none"
         d="M -2.5,-0.80913858 C -2.5,1.9508614 -4.7400000,4.1908614 -7.5,4.1908614 L -7.5,-5.8091386 C -4.7400000,-5.8091386 -2.5,-3.5691386 -2.5,-0.80913858 z "
         id="path4235" />
    </marker>
    <marker
       style="overflow:visible;"
       id="Arrow2Send"
       refX="0.0"
       refY="0.0"
       orient="auto"
       inkscape:stockid="Arrow2Send">
      <path
         transform="scale(0.3) rotate(180) translate(-2.3,0)"
         d="M 8.7185878,4.0337352 L -2.2072895,0.016013256 L 8.7185884,-4.0017078 C 6.9730900,-1.6296469 6.9831476,1.6157441 8.7185878,4.0337352 z "
         style="font-size:12.0;fill-rule:evenodd;stroke-width:0.62500000;stroke-linejoin:round;"
         id="path4149" />
    </marker>
    <marker
       style="overflow:visible"
       id="TriangleOutS"
       refX="0.0"
       refY="0.0"
       orient="auto"
       inkscape:stockid="TriangleOutS">
      <path
         transform="scale(0.2)"
         style="fill-rule:evenodd;stroke:#000000;stroke-width:1.0pt;marker-start:none"
         d="M 5.77,0.0 L -2.88,5.0 L -2.88,-5.0 L 5.77,0.0 z "
         id="path4220" />
    </marker>
    <marker
       style="overflow:visible"
       id="CurveIn"
       refX="0.0"
       refY="0.0"
       orient="auto"
       inkscape:stockid="CurveIn">
      <path
         transform="scale(0.6)"
         style="fill-rule:evenodd;stroke:#000000;stroke-width:1.0pt;marker-start:none;marker-end:none;fill:none"
         d="M 4.6254930,-5.0456926 C 1.8654930,-5.0456926 -0.37450702,-2.8056926 -0.37450702,-0.045692580 C -0.37450702,2.7143074 1.8654930,4.9543074 4.6254930,4.9543074"
         id="path4238" />
    </marker>
    <marker
       orient="auto"
       refY="0"
       refX="0"
       id="InfiniteLineStart"
       inkscape:stockid="InfiniteLineStart"
       style="overflow:visible">
      <g
         transform="translate(-13,0)"
         id="g4298">
        <circle
           cx="3"
           cy="0"
           r="0.8"
           id="circle4300" />
        <circle
           cx="6.5"
           cy="0"
           r="0.8"
           id="circle4302" />
        <circle
           cx="10"
           cy="0"
           r="0.8"
           id="circle4304" />
      </g>
    </marker>
    <marker
       style="overflow:visible"
       id="StopS"
       refX="0.0"
       refY="0.0"
       orient="auto"
       inkscape:stockid="StopS">
      <path
         transform="scale(0.2)"
         style="fill:none;fill-opacity:0.75000000;fill-rule:evenodd;stroke:#000000;stroke-width:1.0pt"
         d="M 0.0,5.65 L 0.0,-5.65"
         id="path4229" />
    </marker>
    <marker
       style="overflow:visible"
       id="Arrow2Sstart"
       refX="0.0"
       refY="0.0"
       orient="auto"
       inkscape:stockid="Arrow2Sstart">
      <path
         transform="scale(0.3) translate(-2.3,0)"
         d="M 8.7185878,4.0337352 L -2.2072895,0.016013256 L 8.7185884,-4.0017078 C 6.9730900,-1.6296469 6.9831476,1.6157441 8.7185878,4.0337352 z "
         style="font-size:12.0;fill-rule:evenodd;stroke-width:0.62500000;stroke-linejoin:round"
         id="path4146" />
    </marker>
    <marker
       style="overflow:visible"
       id="DiamondS"
       refX="0.0"
       refY="0.0"
       orient="auto"
       inkscape:stockid="DiamondS">
      <path
         transform="scale(0.2)"
         style="fill-rule:evenodd;stroke:#000000;stroke-width:1.0pt;marker-start:none"
         d="M 0,-7.0710768 L -7.0710894,0 L 0,7.0710589 L 7.0710462,0 L 0,-7.0710768 z "
         id="path4202" />
    </marker>
    <marker
       orient="auto"
       refY="0"
       refX="0"
       id="RazorWire"
       inkscape:stockid="RazorWire">
       style=&quot;overflow:visible&quot;&gt;
      <path
   d="M 0.022727273,-0.74009011 L 0.022727273,0.69740989 L -7.7585227,3.0099099 L 10.678977,3.0099099 L 3.4914773,0.69740989 L 3.4914773,-0.74009011 L 10.741477,-2.8963401 L -7.7272727,-2.8963401 L 0.022727273,-0.74009011 z "
   style="fill:#808080;fill-opacity:1;fill-rule:evenodd;stroke:#000000;stroke-width:0.1pt"
   transform="scale(0.8,0.8)"
   id="path4286" />
</marker>
    <inkscape:perspective
       id="perspective5233"
       inkscape:persp3d-origin="16 : 10.666667 : 1"
       inkscape:vp_z="32 : 16 : 1"
       inkscape:vp_y="0 : 1000 : 0"
       inkscape:vp_x="0 : 16 : 1"
       sodipodi:type="inkscape:persp3d" />
    <inkscape:perspective
       id="perspective5412"
       inkscape:persp3d-origin="250 : 166.66667 : 1"
       inkscape:vp_z="500 : 250 : 1"
       inkscape:vp_y="0 : 1000 : 0"
       inkscape:vp_x="0 : 250 : 1"
       sodipodi:type="inkscape:persp3d" />
    <inkscape:perspective
       id="perspective5571"
       inkscape:persp3d-origin="202.85715 : 136.19048 : 1"
       inkscape:vp_z="405.71429 : 204.28572 : 1"
       inkscape:vp_y="0 : 1000 : 0"
       inkscape:vp_x="0 : 204.28572 : 1"
       sodipodi:type="inkscape:persp3d" />
    <inkscape:perspective
       id="perspective6552"
       inkscape:persp3d-origin="64 : 42.666667 : 1"
       inkscape:vp_z="128 : 64 : 1"
       inkscape:vp_y="0 : 1000 : 0"
       inkscape:vp_x="0 : 64 : 1"
       sodipodi:type="inkscape:persp3d" />
  </defs>
  <g
     id="g1327">
    <path
       d="M 66.275,1.768 C 24.94,1.768 1.704,23.139 1.704,66.804 L 1.704,516.927 C 1.704,557.771 22.599,579.156 63.896,579.156 L 515.92,579.156 C 557.227,579.156 578.149,558.841 578.149,516.927 L 578.149,66.804 C 578.149,24.203 557.227,1.768 514.628,1.768 C 514.624,1.768 66.133,1.625 66.275,1.768 z "
       style="fill:#111;stroke:#eee;stroke-width:3.40799999"
       id="path1329" />
  </g>
  <g
     transform="translate(659.67954,-18.23036)"
     id="g1327-3"
     style="fill:#2f2f2f;fill-opacity:1;stroke:#fefefe;stroke-width:65.80000305;stroke-linecap:butt;stroke-linejoin:round;stroke-miterlimit:4;stroke-opacity:0.68181817;stroke-dasharray:none" />
  <path
     style="opacity:1;fill:#ffffff;fill-opacity:1;fill-rule:evenodd;stroke:none"
     d="m 327.79303,57.168139 -111.0924,4.938167 -39.63615,42.612134 c -28.82781,55.98019 -23.42298,100.70551 -24.75625,144.58037 -1.83604,60.4199 1.92785,122.30167 14.22585,223.26402 l 147.91609,38.98209 c 0,0 69.93254,6.20363 93.79247,-39.70155 37.04047,-71.26366 10.98819,-284.18989 10.98819,-284.18989 L 385.35048,135.52475 C 362.37335,107.22728 368.64713,119.24492 327.79303,57.168139 Z m -52.65198,65.275371 c 2.23229,-0.058 4.48151,-0.0108 6.73684,0.13082 36.08527,2.26521 73.2524,29.17535 93.95599,81.49611 8.51161,21.51002 18.51168,63.00646 19.0332,108.41075 0.52152,45.4043 -8.52085,95.86118 -46.27488,126.36475 -32.749,26.45974 -75.86691,23.67626 -108.70508,6.83495 -32.83818,-16.84131 -59.36698,-48.4136 -58.04799,-86.04184 1.00979,-28.80689 9.32781,-51.39784 24.10218,-66.77972 14.77437,-15.38187 34.62614,-22.30491 54.48335,-24.42921 34.5926,-3.70068 61.30045,18.21275 70.40976,43.69134 9.10932,25.47858 2.4048,58.352 -25.14868,72.30654 -21.81934,11.05047 -43.35795,8.86021 -55.79147,-1.11191 -12.43353,-9.97212 -16.41649,-23.38937 -17.79049,-26.52221 a 17.809595,17.809595 0 1 1 32.60499,-14.32395 c 2.7248,6.21277 5.32608,11.37272 7.4563,13.08124 2.13022,1.70851 3.1515,4.30462 17.39805,-2.91058 9.73007,-4.92782 12.19702,-16.11333 7.75063,-28.5498 -4.44638,-12.43647 -13.99838,-22.2862 -33.09553,-20.24322 -14.42632,1.54331 -25.03172,5.85198 -32.57228,13.7026 -7.54056,7.85062 -13.42448,20.47025 -14.22585,43.3316 -0.66788,19.05341 15.35093,41.12457 38.72047,53.10982 23.36953,11.98525 50.13079,13.24868 70.05002,-2.84517 24.41836,-19.72894 33.5231,-58.16867 33.06283,-98.24009 -0.46027,-40.07142 -10.5815,-80.64437 -16.54777,-95.72195 -17.02684,-43.0291 -42.76633,-57.78841 -63.05156,-59.06179 -20.28523,-1.27338 -36.22219,9.64383 -40.32291,29.89063 -6.90007,34.06815 11.29658,38.0957 15.50126,38.1318 4.97116,0.0427 6.57135,-0.95639 6.93306,-1.21001 0.36171,-0.25362 0.35053,-0.0787 0.68676,-1.30812 0.67245,-2.45887 -0.38212,-10.36379 -2.48543,-14.61829 a 17.821071,17.821071 0 1 1 31.95092,-15.79559 c 5.41182,10.94678 9.07144,24.56653 4.90546,39.79966 -2.08299,7.61657 -6.9108,15.67946 -14.58558,21.0608 -7.67477,5.38133 -17.331,7.77438 -27.69952,7.68522 -29.12004,-0.25037 -60.09703,-31.61741 -50.13384,-80.80934 7.02111,-34.66582 37.25247,-57.63631 70.73679,-58.50584 z"
     id="path4355"
     inkscape:connector-curvature="0" />
  <path
     style="color:#000000;font-style:normal;font-variant:normal;font-weight:normal;font-stretch:normal;font-size:medium;line-height:normal;font-family:Sans;-inkscape-font-specification:Sans;text-indent:0;text-align:start;text-decoration:none;text-decoration-line:none;letter-spacing:normal;word-spacing:normal;text-transform:none;direction:ltr;block-progression:tb;writing-mode:lr-tb;baseline-shift:baseline;text-anchor:start;display:inline;overflow:visible;visibility:visible;opacity:0.07905136;fill:#ffffff;fill-opacity:1;stroke:none;stroke-width:34.03312302;marker:none;enable-background:accumulate"
     d="m 275.15489,122.45631 c -33.48433,0.86953 -63.71568,23.84001 -70.73679,58.50584 -9.9632,49.19193 20.98109,80.55897 50.10114,80.80934 10.36851,0.0892 20.02474,-2.30389 27.69952,-7.68523 7.67477,-5.38133 12.50258,-13.44422 14.58558,-21.06079 4.16597,-15.23313 0.50636,-28.85289 -4.90547,-39.79966 a 17.809595,17.809595 0 1 0 -31.91822,15.76289 c 2.10332,4.2545 3.15789,12.19212 2.48544,14.65098 -0.33623,1.22944 -0.32505,1.02181 -0.68677,1.27543 -0.36171,0.25361 -1.9619,1.28545 -6.93305,1.24271 -4.20469,-0.0361 -22.43404,-4.06365 -15.53397,-38.1318 4.10073,-20.2468 20.07038,-31.19671 40.35562,-29.92333 20.28523,1.27338 46.02472,16.03268 63.05156,59.06178 5.96627,15.07758 16.08749,55.65054 16.54776,95.72196 0.46028,40.07142 -8.64446,78.51115 -33.06282,98.24009 -19.91923,16.09385 -46.68049,14.86312 -70.05003,2.87787 -23.36954,-11.98525 -39.38835,-34.05641 -38.72046,-53.10982 0.80137,-22.86135 6.65258,-35.51369 14.19314,-43.3643 7.54056,-7.85062 18.14596,-12.1593 32.57228,-13.7026 19.09715,-2.04299 28.68185,7.83945 33.12824,20.27592 4.44638,12.43647 1.97944,23.62198 -7.75064,28.5498 -14.24654,7.2152 -15.26782,4.58638 -17.39804,2.87787 -2.13023,-1.70851 -4.73151,-6.83576 -7.45631,-13.04853 a 17.809595,17.809595 0 1 0 -32.60498,14.29125 c 1.374,3.13284 5.32425,16.58279 17.75778,26.55491 12.43352,9.97212 33.97213,12.12968 55.79147,1.0792 27.55349,-13.95454 34.2907,-46.82795 25.18139,-72.30654 -9.10932,-25.47859 -35.84987,-47.35931 -70.44247,-43.65863 -19.85721,2.1243 -39.67628,9.04734 -54.45065,24.42921 -14.77437,15.38187 -23.12509,37.97283 -24.13488,66.77972 -1.31899,37.62824 25.24252,69.20053 58.08069,86.04184 32.83818,16.84131 75.92338,19.59208 108.67238,-6.86765 37.75403,-30.50357 46.82911,-80.92776 46.30758,-126.33205 -0.52152,-45.4043 -10.55428,-86.90073 -19.0659,-108.41076 -20.70359,-52.32076 -57.83801,-79.2636 -93.92328,-81.52881 -2.25534,-0.14158 -4.50455,-0.15607 -6.73684,-0.098 z"
     id="path3764"
     inkscape:connector-curvature="0" />
</svg>

<svg width="580" height="580" viewBox="0 0 580 580" fill="none" xmlns="http://www.w3.org/2000/svg">
<g clip-path="url(#clip0)">
<path d="M66.275 1.76802C24.94 1.76802 1.70398 23.139 1.70398 66.804V516.927C1.70398 557.771 22.599 579.156 63.896 579.156H515.92C557.227 579.156 578.149 558.841 578.149 516.927V66.804C578.149 24.203 557.227 1.76802 514.628 1.76802C514.624 1.76802 66.133 1.62502 66.275 1.76802Z" fill="#111111" stroke="#EEEEEE" stroke-width="3.408"/>
<path fill-rule="evenodd" clip-rule="evenodd" d="M327.793 57.1681L216.701 62.1063L177.064 104.718C148.237 160.699 153.641 205.424 152.308 249.299C150.472 309.719 154.236 371.6 166.534 472.563L314.45 511.545C314.45 511.545 384.383 517.749 408.243 471.843C445.283 400.58 419.231 187.653 419.231 187.653L385.35 135.525C362.373 107.227 368.647 119.245 327.793 57.1681ZM275.141 122.443C277.373 122.385 279.623 122.433 281.878 122.574C317.963 124.839 355.13 151.75 375.834 204.07C384.346 225.58 394.346 267.077 394.867 312.481C395.389 357.885 386.346 408.342 348.592 438.846C315.843 465.306 272.725 462.522 239.887 445.681C207.049 428.84 180.52 397.267 181.839 359.639C182.849 330.832 191.167 308.241 205.941 292.859C220.716 277.477 240.567 270.554 260.425 268.43C295.017 264.729 321.725 286.643 330.834 312.121C339.944 337.6 333.239 370.473 305.686 384.428C283.866 395.478 262.328 393.288 249.894 383.316C237.461 373.344 233.478 359.927 232.104 356.794C231.11 354.645 230.555 352.319 230.471 349.953C230.386 347.587 230.775 345.228 231.613 343.014C232.451 340.8 233.722 338.775 235.352 337.058C236.982 335.341 238.938 333.966 241.106 333.014C243.273 332.062 245.609 331.551 247.976 331.512C250.343 331.473 252.695 331.907 254.892 332.787C257.09 333.668 259.09 334.977 260.776 336.64C262.461 338.303 263.798 340.284 264.709 342.47C267.434 348.683 270.035 353.843 272.165 355.551C274.295 357.26 275.317 359.856 289.563 352.641C299.293 347.713 301.76 336.527 297.314 324.091C292.867 311.654 283.315 301.805 264.218 303.848C249.792 305.391 239.186 309.699 231.646 317.55C224.105 325.401 218.221 338.02 217.42 360.882C216.752 379.935 232.771 402.006 256.141 413.992C279.51 425.977 306.271 427.24 326.191 411.146C350.609 391.417 359.714 352.978 359.253 312.906C358.793 272.835 348.672 232.262 342.706 217.184C325.679 174.155 299.939 159.396 279.654 158.123C259.369 156.849 243.432 167.766 239.331 188.013C232.431 222.081 250.628 226.109 254.832 226.145C259.804 226.188 261.404 225.189 261.765 224.935C262.127 224.681 262.116 224.856 262.452 223.627C263.125 221.168 262.07 213.263 259.967 209.009C258.928 206.91 258.313 204.628 258.157 202.292C258.001 199.957 258.306 197.613 259.056 195.395C259.806 193.177 260.985 191.129 262.527 189.367C264.068 187.605 265.942 186.165 268.04 185.127C270.139 184.09 272.422 183.476 274.757 183.321C277.093 183.166 279.437 183.472 281.654 184.223C283.872 184.974 285.919 186.154 287.68 187.697C289.441 189.239 290.881 191.114 291.918 193.213C297.33 204.16 300.989 217.779 296.823 233.013C294.74 240.629 289.912 248.692 282.238 254.073C274.563 259.455 264.907 261.848 254.538 261.759C225.418 261.508 194.441 230.141 204.404 180.949C211.425 146.283 241.657 123.313 275.141 122.443V122.443Z" fill="white"/>
<path opacity="0.0790514" d="M275.155 122.456C241.671 123.326 211.439 146.296 204.418 180.962C194.455 230.154 225.399 261.521 254.519 261.771C264.888 261.861 274.544 259.468 282.219 254.086C289.894 248.705 294.721 240.642 296.804 233.025C300.97 217.792 297.311 204.173 291.899 193.226C290.914 191.048 289.502 189.09 287.745 187.47C285.988 185.849 283.923 184.599 281.673 183.793C279.423 182.988 277.033 182.643 274.647 182.781C272.261 182.918 269.927 183.534 267.784 184.592C265.641 185.651 263.733 187.13 262.173 188.941C260.614 190.752 259.435 192.859 258.707 195.135C257.979 197.412 257.716 199.811 257.935 202.191C258.154 204.572 258.85 206.883 259.981 208.989C262.084 213.243 263.139 221.181 262.466 223.64C262.13 224.869 262.141 224.661 261.779 224.915C261.418 225.169 259.817 226.201 254.846 226.158C250.642 226.122 232.412 222.094 239.312 188.026C243.413 167.779 259.383 156.829 279.668 158.103C299.953 159.376 325.693 174.135 342.719 217.164C348.686 232.242 358.807 272.815 359.267 312.886C359.728 352.958 350.623 391.398 326.204 411.127C306.285 427.22 279.524 425.99 256.154 414.004C232.785 402.019 216.766 379.948 217.434 360.895C218.235 338.033 224.087 325.381 231.627 317.53C239.168 309.68 249.773 305.371 264.199 303.828C283.297 301.785 292.881 311.667 297.328 324.104C301.774 336.54 299.307 347.726 289.577 352.653C275.33 359.869 274.309 357.24 272.179 355.531C270.049 353.823 267.447 348.695 264.723 342.483C263.837 340.264 262.514 338.247 260.833 336.55C259.151 334.853 257.146 333.512 254.936 332.607C252.726 331.701 250.356 331.249 247.967 331.278C245.579 331.307 243.221 331.816 241.033 332.775C238.845 333.733 236.873 335.123 235.233 336.859C233.593 338.596 232.319 340.645 231.488 342.884C230.656 345.123 230.283 347.507 230.391 349.893C230.499 352.279 231.087 354.619 232.118 356.774C233.492 359.907 237.442 373.357 249.875 383.329C262.309 393.301 283.848 395.459 305.667 384.408C333.22 370.454 339.958 337.58 330.848 312.102C321.739 286.623 294.998 264.742 260.406 268.443C240.549 270.567 220.73 277.49 205.955 292.872C191.181 308.254 182.83 330.845 181.82 359.652C180.501 397.28 207.063 428.852 239.901 445.694C272.739 462.535 315.824 465.286 348.573 438.826C386.327 408.322 395.402 357.898 394.881 312.494C394.359 267.09 384.327 225.593 375.815 204.083C355.111 151.762 317.977 124.82 281.892 122.554C279.636 122.413 277.387 122.398 275.155 122.456V122.456Z" fill="white"/>
</g>
<defs>
<clipPath id="clip0">
<path d="M0 0H580V580H0V0Z" fill="white"/>
</clipPath>
</defs>
</svg>
